rospo-icon-theme-classic-common/32x32/places/folder-grey-games.svg

<svg height="32" width="32" xmlns="http://www.w3.org/2000/svg"><rect height="16" opacity=".2" rx="1.25" width="25" x="3" y="12"/><path d="m3 21.75c0 .692.5575 1.25 1.25 1.25h22.5c.692 0 1.25-.558 1.25-1.25v-13.5c0-.6925-.558-1.25-1.25-1.25h-12.75v-.75c0-.6925-.557-1.25-1.25-1.25h-8.5c-.6925 0-1.25.5575-1.25 1.25" fill="#727272"/><rect height="16" opacity=".2" rx="1.25" width="25" x="3" y="10"/><rect fill="#e4e4e4" height="10" rx="1.25" width="21" x="5" y="9"/><rect fill="#8e8e8e" height="16" rx="1.25" width="25" x="3" y="11"/><path d="m4.25 5c-.6925 0-1.25.5575-1.25 1.25v1c0-.6925.5575-1.25 1.25-1.25h8.5c.693 0 1.25.5575 1.25 1.25v.75h12.75c.692 0 1.25.5575 1.25 1.25v-1c0-.6925-.558-1.25-1.25-1.25h-12.75v-.75c0-.6925-.557-1.25-1.25-1.25z" fill="#fff" opacity=".1"/><path d="m18.645 15c-.15.001-.286.052-.416.15-.33.252-1.019.849-2.231.85s-1.898-.598-2.228-.85c-.13-.098-.255-.147-.407-.146-.151.001-.326.045-.504.146-.648.365-1.242 1.562-1.566 3.112-.276 1.316-.38 3.115-.215 3.84.144.622.391.898.832.898 1.413 0 1.475-1.092 1.996-2.139.377-.58 1.25-.842 2.092-.812.842-.032 1.717.232 2.094.812.521 1.047.583 2.139 1.996 2.139.441 0 .688-.276.832-.898.165-.725.061-2.524-.215-3.84-.324-1.55-.918-2.747-1.566-3.112-.178-.101-.343-.151-.494-.15zm-5.645 1h1v1h1v1h-1v1h-1v-1h-1v-1h1zm5.5 0a .5.5 0 0 1  .5.5.5.5 0 0 1 -.5.5.5.5 0 0 1 -.5-.5.5.5 0 0 1  .5-.5zm-1 1a .5.5 0 0 1  .5.5.5.5 0 0 1 -.5.5.5.5 0 0 1 -.5-.5.5.5 0 0 1  .5-.5zm2 0a .5.5 0 0 1  .5.5.5.5 0 0 1 -.5.5.5.5 0 0 1 -.5-.5.5.5 0 0 1  .5-.5zm-1 1a .5.5 0 0 1  .5.5.5.5 0 0 1 -.5.5.5.5 0 0 1 -.5-.5.5.5 0 0 1  .5-.5z" fill="#323232"/></svg>

<svg xmlns="http://www.w3.org/2000/svg" width="32" height="32" version="1">
 <rect style="opacity:0.2" width="25" height="16" x="3" y="12" rx="1.25" ry="1.25"/>
 <path style="fill:#727272" d="M 3,21.75 C 3,22.442 3.5575,23 4.25,23 H 26.75 C 27.442,23 28,22.442 28,21.75 V 8.25 C 28,7.5575 27.442,7 26.75,7 H 14 V 6.25 C 14,5.5575 13.443,5 12.75,5 H 4.25 C 3.5575,5 3,5.5575 3,6.25"/>
 <rect style="opacity:0.2" width="25" height="16" x="3" y="10" rx="1.25" ry="1.25"/>
 <rect style="fill:#dcdcdc" width="21" height="10" x="5" y="9" rx="1.25" ry="1.25"/>
 <rect style="fill:#8e8e8e" width="25" height="16" x="3" y="11" rx="1.25" ry="1.25"/>
 <path style="opacity:0.1;fill:#ffffff" d="M 4.25 5 C 3.5575 5 3 5.5575 3 6.25 L 3 7.25 C 3 6.5575 3.5575 6 4.25 6 L 12.75 6 C 13.443 6 14 6.5575 14 7.25 L 14 8 L 26.75 8 C 27.442 8 28 8.5575 28 9.25 L 28 8.25 C 28 7.5575 27.442 7 26.75 7 L 14 7 L 14 6.25 C 14 5.5575 13.443 5 12.75 5 L 4.25 5 z"/>
 <path style="fill:#323232" d="M 18.645 15 C 18.495 15.001 18.359 15.052 18.229 15.15 C 17.899 15.402 17.21 15.999 15.998 16 C 14.786 16.001 14.1 15.402 13.77 15.15 C 13.64 15.052 13.515 15.003 13.363 15.004 C 13.212 15.005 13.037 15.049 12.859 15.15 C 12.211 15.515 11.617 16.712 11.293 18.262 C 11.017 19.578 10.913 21.377 11.078 22.102 C 11.222 22.724 11.469 23 11.91 23 C 13.323 23 13.385 21.908 13.906 20.861 C 14.283 20.281 15.156 20.019 15.998 20.049 C 16.84 20.017 17.715 20.281 18.092 20.861 C 18.613 21.908 18.675 23 20.088 23 C 20.529 23 20.776 22.724 20.92 22.102 C 21.085 21.377 20.981 19.578 20.705 18.262 C 20.381 16.712 19.787 15.515 19.139 15.15 C 18.961 15.049 18.796 14.999 18.645 15 z M 13 16 L 14 16 L 14 17 L 15 17 L 15 18 L 14 18 L 14 19 L 13 19 L 13 18 L 12 18 L 12 17 L 13 17 L 13 16 z M 18.5 16 A 0.5 0.5 0 0 1 19 16.5 A 0.5 0.5 0 0 1 18.5 17 A 0.5 0.5 0 0 1 18 16.5 A 0.5 0.5 0 0 1 18.5 16 z M 17.5 17 A 0.5 0.5 0 0 1 18 17.5 A 0.5 0.5 0 0 1 17.5 18 A 0.5 0.5 0 0 1 17 17.5 A 0.5 0.5 0 0 1 17.5 17 z M 19.5 17 A 0.5 0.5 0 0 1 20 17.5 A 0.5 0.5 0 0 1 19.5 18 A 0.5 0.5 0 0 1 19 17.5 A 0.5 0.5 0 0 1 19.5 17 z M 18.5 18 A 0.5 0.5 0 0 1 19 18.5 A 0.5 0.5 0 0 1 18.5 19 A 0.5 0.5 0 0 1 18 18.5 A 0.5 0.5 0 0 1 18.5 18 z"/>
</svg>
